X:537
T:The Prettiest Girl of All
M:C
L:1/8
B:O'Neill's 537
N:"Spirited" "collected by F. O'Neill"
Z:Transcribed by Dave Wooldridge
K:G
(B>A) \
| G>G AB D3 E | G>G AB cBAG | c2 ce dB AG | A>(G B/2A/2G/2F/2) E2 BA |
 G>G AB D3 E  | G2 G2 g2 fe | d>e dB A>(B c/2A/2G/2F/2) | A4 G2 ||
(Bc) \
| d>def g2 ef | (g>fga) b2 ga | (b>a)(ge) dBAG | cBAG E2 (BA) |
G2 (G/2D/2B,/2D/2) G,2 EF | G>ABd g2 f>e | d>edB A>(B c/2A/2G/2F/2) | A4 G2 ||


